src/img/social/linkedin.svg

<svg height="24" viewBox="0 0 24 24" width="24" xmlns="http://www.w3.org/2000/svg"><path d="m23 0h-22c-.6 0-1 .4-1 1v22c0 .6.4 1 1 1h22c.6 0 1-.4 1-1v-22c0-.6-.4-1-1-1zm-15.9 20.5h-3.5v-11.5h3.6v11.5zm-1.8-13.1c-1.1 0-2.1-.9-2.1-2.1 0-1.1.9-2.1 2.1-2.1 1.1 0 2.1.9 2.1 2.1s-.9 2.1-2.1 2.1zm15.2 13.1h-3.6v-5.6c0-1.3 0-3-1.8-3-1.9 0-2.1 1.4-2.1 2.9v5.7h-3.6v-11.5h3.4v1.6c.5-.9 1.6-1.8 3.4-1.8 3.6 0 4.3 2.4 4.3 5.5z" fill="#fff"/></svg>

<svg xmlns="http://www.w3.org/2000/svg" xmlns:xlink="http://www.w3.org/1999/xlink" x="0px" y="0px" width="24px" height="24px" viewBox="0 0 24 24"><g transform="translate(0, 0)"><path fill="#ffffff" d="M23,0H1C0.4,0,0,0.4,0,1v22c0,0.6,0.4,1,1,1h22c0.6,0,1-0.4,1-1V1C24,0.4,23.6,0,23,0z M7.1,20.5H3.6V9h3.6
	V20.5z M5.3,7.4c-1.1,0-2.1-0.9-2.1-2.1c0-1.1,0.9-2.1,2.1-2.1c1.1,0,2.1,0.9,2.1,2.1C7.4,6.5,6.5,7.4,5.3,7.4z M20.5,20.5h-3.6
	v-5.6c0-1.3,0-3-1.8-3c-1.9,0-2.1,1.4-2.1,2.9v5.7H9.4V9h3.4v1.6h0c0.5-0.9,1.6-1.8,3.4-1.8c3.6,0,4.3,2.4,4.3,5.5V20.5z"></path></g></svg>
